packages/ffe-icons/icons/filled/sm/blinds_closed.svg

<svg xmlns="http://www.w3.org/2000/svg" height="20" viewBox="0 -960 960 960" width="20"><path d="M212.001-216v-515.691q0-26.527 18.903-45.417 18.902-18.891 45.445-18.891h407.626q26.543 0 45.283 18.891 18.741 18.89 18.741 45.417V-216h70q11.05 0 18.525 7.418 7.475 7.418 7.475 18.384 0 10.966-7.475 18.581-7.475 7.616-18.525 7.616H606.691q0 19.999-14.017 33.845t-33.845 13.846q-19.829 0-33.675-13.967-13.846-13.967-13.846-33.724H142.267q-11.163 0-18.714-7.419-7.552-7.418-7.552-18.384 0-10.966 7.475-18.581T142.001-216h70ZM264-644.999h269V-744H276.309q-5.385 0-8.847 3.462-3.462 3.462-3.462 8.847v86.692Zm320.999 0H696v-86.692q0-5.385-3.462-8.847-3.462-3.462-8.847-3.462h-98.692v99.001ZM264-505.999h269V-593H264v87.001Zm320.999 0H696V-593H584.999v87.001ZM264-367h269v-87.001H264V-367Zm320.999 0H696v-87.001H584.999V-367ZM264-216h269v-99.001H264V-216Zm320.999 0H696v-99.001H584.999V-216Z"/></svg>

<svg xmlns="http://www.w3.org/2000/svg" height="20" viewBox="0 -960 960 960" width="20"><path d="M212-216v-515.69q0-26.53 18.9-45.42Q249.81-796 276.35-796h407.62q26.55 0 45.29 18.89T748-731.69V-216h70q11.05 0 18.52 7.42 7.48 7.42 7.48 18.38 0 10.97-7.48 18.58Q829.05-164 818-164H606.69q0 20-14.02 33.84-14.01 13.85-33.84 13.85-19.83 0-33.68-13.97-13.84-13.96-13.84-33.72H142.27q-11.17 0-18.72-7.42-7.55-7.42-7.55-18.38 0-10.97 7.48-18.58Q130.95-216 142-216h70Zm52-429h269v-99H276.31q-5.39 0-8.85 3.46t-3.46 8.85V-645Zm321 0h111v-86.69q0-5.39-3.46-8.85t-8.85-3.46H585v99ZM264-506h269v-87H264v87Zm321 0h111v-87H585v87ZM264-367h269v-87H264v87Zm321 0h111v-87H585v87ZM264-216h269v-99H264v99Zm321 0h111v-99H585v99Z"/></svg>
